ui/StatusQ/src/assets/img/icons/block-icon-white.svg

<svg fill="none" height="14" viewBox="0 0 14 14" width="14" xmlns="http://www.w3.org/2000/svg"><path clip-rule="evenodd" d="m6.99967 13.6668c-3.68189 0-6.666662-2.9847-6.666662-6.66664 0-3.6819 2.984772-6.666664 6.666662-6.666664 3.68193 0 6.66663 2.984764 6.66663 6.666664 0 3.68194-2.9847 6.66664-6.66663 6.66664zm-4.08759-3.2862c-.13833.1384-.36627.1288-.4821-.0288-.68961-.93868-1.09697-2.09759-1.09697-3.35164 0-3.12961 2.53705-5.66666 5.66666-5.66666 1.25406 0 2.41296.40736 3.35163 1.09697.1577.11583.1672.34377.0289.4821zm.70711.7072c-.13833.1383-.12879.3662.02887.4821.93866.6896 2.09756 1.0969 3.35161 1.0969 3.12963 0 5.66663-2.537 5.66663-5.66664 0-1.25405-.4073-2.41296-1.0969-3.35161-.1159-.15766-.3438-.1672-.4821-.02887z" fill="#fff" fill-rule="evenodd"/></svg>

<svg width="14" height="14" viewBox="0 0 14 14" fill="none" xmlns="http://www.w3.org/2000/svg">
<path fill-rule="evenodd" clip-rule="evenodd" d="M6.99967 13.6668C3.31778 13.6668 0.333008 10.6821 0.333008 7.00016C0.333008 3.31826 3.31778 0.333496 6.99967 0.333496C10.6816 0.333496 13.6663 3.31826 13.6663 7.00016C13.6663 10.6821 10.6816 13.6668 6.99967 13.6668ZM2.91208 10.3806C2.77375 10.519 2.54581 10.5094 2.42998 10.3518C1.74037 9.41312 1.33301 8.25421 1.33301 7.00016C1.33301 3.87055 3.87006 1.3335 6.99967 1.3335C8.25373 1.3335 9.41263 1.74086 10.3513 2.43047C10.509 2.5463 10.5185 2.77424 10.3802 2.91257L2.91208 10.3806ZM3.61919 11.0878C3.48086 11.2261 3.4904 11.454 3.64806 11.5699C4.58672 12.2595 5.74562 12.6668 6.99967 12.6668C10.1293 12.6668 12.6663 10.1298 12.6663 7.00016C12.6663 5.74611 12.259 4.5872 11.5694 3.64855C11.4535 3.49089 11.2256 3.48135 11.0873 3.61968L3.61919 11.0878Z" fill="#ffffff"/>
</svg>
